X: 1
T:Bourre de la Marguerite de Gennes (version Roche/Breugnot)
M:3/8
L:1/16
K:C
dedcd2|efedc2|d3cd2|e2g4:|\
|:efg2a2|g2d4|efg2f2|e2d4|\
c4d2|e2g2fg|e4d2|c6:|
